X:173
T: Mama niang ni hao hutu
N: C0293
O: China, Liaoning, Haicheng
S: III, 247]
N: Sehr bekannt. Urspruenglich beklagt sich darin die Tochter, warum
N: die Mutter ihr noch keinen Mann ausgewaehlt hat. Hier werden nun
N: Gleichberechtigung und Ehefreiheit gefordert. Text also sehr
N: beliebt.
R: Xiaodiao, Shidiao, Mama hutu diao. Geming lishi minge]]
M: 4/4
L: 1/16
K: F
d3fd2c2A6c2 | d3fd2c2A8 |
A4f4d4c4 | c2F4G2A8 |
A3GA2c2d2f2d2c2 | A2A2c2A2G4F4 |
F3GA2c2G2A2E4 | D6C2D8 |
F2D2F2G2A2c2A2G2 | F3GA2c2G4E4 | D6C2D8

